X: 27
T: Missa Se mieulx ne vient &mdash; Credo
C: Gaspar van Weerbeke
%%abc-version 2.0
%%abcx-abcm2ps-target-version 5.9.1 (29 Sep 2008)
%%abc-creator hum2abc beta
%%abcx-conversion-date 2022/03/06 13:06:00
%%abc-copyright Copyright 2014, Pavanello, Agnese
%%abc-edited-by Mair-Gruber, Roland
%%humdrum-veritas 298776913
%%humdrum-veritas-data 356110291
%%linebreak <none>
%%barnumbers 0
L: 1/4
M: 3/2
N: Derived from Gas0104c-Missa_Se_mieulx_ne_vient-Credo.krn
%%staves [1 2 3 4]
V: 1 clef=treble
V: 2 clef=treble-8
V: 3 clef=treble-8
V: 4 clef=bass
K: C
[V:1] D4D2 | 
[V:2] d4B2 | 
[V:3] z6 | 
[V:4] D,4G,2 | 
[V:1] G2GGA2 | 
[V:2] GBBc>BA | 
[V:3] z6 | 
[V:4] E,2E,E,F,2 | 
[V:1] B2B2BB | 
[V:2] Gd2d2d | 
[V:3] z6 | 
[V:4] G,G,G,G,G,2 | 
[V:1] c>BGd>cB | 
[V:2] e>dB3B | 
[V:3] z6 | 
[V:4] C,2G,4 | 
[V:1] A>GFDE2 | 
[V:2] c>BAd2^c | 
[V:3] z6 | 
[V:4] F,>G,A,_B,A,2 | 
[V:1] D2zGFA- | 
[V:2] dfe2d2 | 
[V:3] z6 | 
[V:4] zD,2C,D,3/E,/ | 
[V:1] AGFA2G | 
[V:2] cBd2cB | 
[V:3] z6 | 
[V:4] F,G,D,>E,F,G, | 
[V:1] F_BAG2^F | 
[V:2] d2cBA2 | 
[V:3] z6 | 
[V:4] D,G,,A,,B,,C,D, | 
[V:1] G2z2z2 | 
[V:2] G2D>E ^F/G/A- | 
[V:3] z6 | 
[V:4] G,,>A,, B,,/C,<D,E,/^F,- | 
[V:1] z6 | 
[V:2] A/B<cB/A/G/A2 | 
[V:3] z6 | 
[V:4] F,/G,/A,2G,2^F, | 
[V:1] zDEEDA | 
[V:2] G2z2zD | 
[V:3] z6 | 
[V:4] G,G,,C,2B,,D,- | 
[V:1] GEFA>GF/E/ | 
[V:2] EEDF>GA- | 
[V:3] z6 | 
[V:4] D,^C,D,2z2 | 
[V:1] D>B,CD2^C | 
[V:2] AGAFE2 | 
[V:3] z6 | 
[V:4] B,,2A,,D,A,,2 | 
[V:1] D2>C2DE | 
[V:2] D2z2z2 | 
[V:3] z6 | 
[V:4] z2zA,,B,,C, | 
[V:1] FDz2zA | 
[V:2] zABcdf | 
[V:3] z6 | 
[V:4] D,F,E,2D,2 | 
[V:1] Bcd>c B/A/G- | 
[V:2] e2dg>fe/d/ | 
[V:3] z6 | 
[V:4] G,A,B,2G,2 | 
[V:1] GcBA2G | 
[V:2] e2>c2B2 | 
[V:3] z6 | 
[V:4] zC,E,F,G,2 | 
[V:1] A2F>GA_B | 
[V:2] A2d>cAd/e/ | 
[V:3] D6- | 
[V:4] D,2z2F,3/G,/ | 
[V:1] Ad>cBA2 | 
[V:2] f2dg2^f | 
[V:3] D6 | 
[V:4] A,_B,A,G,A,2 | 
[V:1] B2B2BB- | 
[V:2] g3f/e<de/ | 
[V:3] G6 | 
[V:4] z2G,,4 | 
[V:1] B/A<AG/^F/E/F2 | 
[V:2] f>e d/c<dc/A | 
[V:3] A6 | 
[V:4] D,6 | 
[V:1] G2zd2d | 
[V:2] ddddB3/A/ | 
[V:3] B6- | 
[V:4] G,,6- | 
[V:1] ddB2GG- | 
[V:2] G2d4 | 
[V:3] B6 | 
[V:4] G,,6 | 
[V:1] G/F/E/D<EF/G2 | 
[V:2] ecAcB2 | 
[V:3] c3B/A/G2 | 
[V:4] C,4E,2 | 
[V:1] z2zBcA | 
[V:2] BcABz2 | 
[V:3] de2dc2 | 
[V:4] D,C,2B,,A,,2 | 
[V:1] B2B2BB | 
[V:2] d2dddd- | 
[V:3] B>GG2z2 | 
[V:4] G,,2zG,G,G,- | 
[V:1] B2BB2c- | 
[V:2] dddde3/d/ | 
[V:3] z6 | 
[V:4] G,G,G,G,E,C, | 
[V:1] cAB2GG | 
[V:2] cd2BBe | 
[V:3] z6 | 
[V:4] F,>D,D,G,2C, | 
[V:1] Bc/B/ A/G/G2F | 
[V:2] dcdBA2 | 
[V:3] z6 | 
[V:4] G,A,F,G,D,2 | 
[V:1] ED2B,A,3/G,/ | 
[V:2] G>FD>EF3/G/ | 
[V:3] z6 | 
[V:4] z2zG,,D,3/C,/ | 
[V:1] C2B,2z2 | 
[V:2] A2B2G2 | 
[V:3] z2Gd>cA | 
[V:4] A,,2G,,B,,2D,- | 
[V:1] z2z2Gd- | 
[V:2] ^FGA2B2 | 
[V:3] AG2^FG2 | 
[V:4] D,B,,A,,2G,,2 | 
[V:1] d/c/AAG2^F | 
[V:2] Ad2BA2 | 
[V:3] zDFGA2 | 
[V:4] z2zG,,D,2 | 
[V:1] GA2G2^F | 
[V:2] zd2cd2 | 
[V:3] GFG2A2 | 
[V:4] E,D,E,2D,2 | 
[V:1] G2zBcA | 
[V:2] Bc/B/ A/G/G2^F | 
[V:3] G2z2z2 | 
[V:4] E,C,D,B,,A,,2 | 
[V:1] BG2^FG2 | 
[V:2] GBA2G2 | 
[V:3] z6 | 
[V:4] G,,2z2G,,2 | 
[V:1] DG2ED2 | 
[V:2] z6 | 
[V:3] z2G2BB | 
[V:4] B,,2C,2B,,D, | 
[V:1] E2D>E F/G/A- | 
[V:2] G>AB>c d/e/f | 
[V:3] c2Bd>cA | 
[V:4] C,>B,,G,,2zD, | 
[V:1] AGA2FD | 
[V:2] d4A3/B/ | 
[V:3] _BA/G<FG/AF | 
[V:4] G,2D,2D,D, | 
[V:1] EF2D2^C | 
[V:2] c2A2A2 | 
[V:3] EDF2E2 | 
[V:4] C,D,>C,D,A,,2 | 
[V:1] D2zAAF- | 
[V:2] F2F>GA2- | 
[V:3] D6 | 
[V:4] zA,2F,2D,- | 
[V:1] FDAGc2 | 
[V:2] A_BA_B2A | 
[V:3] d4c2 | 
[V:4] D,G,F,G,A,2 | 
[V:1] _BBB>GAB | 
[V:2] _B2Gd2_B | 
[V:3] d4d2 | 
[V:4] G,4F,G, | 
[V:1] A/G/F/E/Dd2c | 
[V:2] cd2DA2 | 
[V:3] f2>d2e2 | 
[V:4] F,D,2_B,,A,,2 | 
[V:1] dddc/B/Ad | 
[V:2] DGFDA2 | 
[V:3] d2ffff | 
[V:4] z2D,D,D,D, | 
[V:1] cB2A2^G | 
[V:2] zGBce2 | 
[V:3] ed2cB2 | 
[V:4] E,G,2A,E,2 | 
[V:1] A2zAGB | 
[V:2] c2d2ed | 
[V:3] A4z2 | 
[V:4] F,2D,F,E,G,- | 
[V:1] A2G2Ac | 
[V:2] cAB2c3/d/ | 
[V:3] z2z2zA | 
[V:4] G,F,G,2F,2 | 
[V:1] BGA2DG | 
[V:2] e/f/g2^fg2 | 
[V:3] GBA2G2 | 
[V:4] G,2D,2zE, | 
[V:1] FA2FGE | 
[V:2] z2z2zG | 
[V:3] d4c2 | 
[V:4] D,F,2D,E,2 | 
[V:1] FDF>G A/B/c- | 
[V:2] AFDF>GA/B/ | 
[V:3] d4A2 | 
[V:4] D,2z2z2 | 
[V:1] c/B/Gz2z2 | 
[V:2] c>BG2c2 | 
[V:3] z6 | 
[V:4] A,,C,>D,E,/D,<F,E,/ | 
[V:1] G>ABc>BG | 
[V:2] c2BA>GE | 
[V:3] e6 | 
[V:4] C,2z2zC, | 
[V:1] z2B2cA | 
[V:2] FD2G2^F | 
[V:3] d4c2 | 
[V:4] D,B,,G,,B,,A,,2 | 
[V:1] BA2G2^F | 
[V:2] GABcd2 | 
[V:3] BcBGA2 | 
[V:4] G,,F,G,E,D,2 | 
[V:1] G6 ||  
[V:2] d6 ||  
[V:3] G6 ||  
[V:4] G,,6 ||  
[V:1] [M:2/2]D4 | 
[V:2] [M:2/2]z4 | 
[V:3] [M:2/2]z4 | 
[V:4] [M:2/2]z4 | 
[V:1] C2C2 | 
[V:2] z4 | 
[V:3] z4 | 
[V:4] z4 | 
[V:1] B,D>CB, | 
[V:2] z4 | 
[V:3] z4 | 
[V:4] D,4 | 
[V:1] C/B,/A,/G,/A,2 | 
[V:2] z4 | 
[V:3] z4 | 
[V:4] C,2C,2 | 
[V:1] B,4 | 
[V:2] d4 | 
[V:3] z4 | 
[V:4] B,,D,>C,B,, | 
[V:1] z4 | 
[V:2] c2c2 | 
[V:3] z4 | 
[V:4] C,/B,,/A,,/G,,/A,,2 | 
[V:1] z4 | 
[V:2] Bd>cB | 
[V:3] z4 | 
[V:4] B,,>C,D,E,- | 
[V:1] z4 | 
[V:2] c/B/A/G/A2 | 
[V:3] z4 | 
[V:4] E,/D,/C,/B,,/C,2 | 
[V:1] B4 | 
[V:2] B4 | 
[V:3] z4 | 
[V:4] (3B,, C, D,G,,G, | 
[V:1] A2A2 | 
[V:2] z4 | 
[V:3] z4 | 
[V:4] A,F,2E,/F,/ | 
[V:1] GB>AG | 
[V:2] B4 | 
[V:3] z4 | 
[V:4] G,2G,,2 | 
[V:1] A/G/^F/E/F2 | 
[V:2] A2A2 | 
[V:3] z4 | 
[V:4] D,D,D,2 | 
[V:1] GD2C/B,/ | 
[V:2] GB2A/G/ | 
[V:3] z4 | 
[V:4] G,,2G,,2 | 
[V:1] C/B,/A,/G,/A,2 | 
[V:2] A/G/^F/E/^F2 | 
[V:3] z4 | 
[V:4] z2D,2 | 
[V:1] G,2z2 | 
[V:2] G2d2 | 
[V:3] z4 | 
[V:4] E,>D,B,,D, | 
[V:1] z2D2 | 
[V:2] e>dBd | 
[V:3] z4 | 
[V:4] C,>B,,G,,2 | 
[V:1] E>DB,D | 
[V:2] c>BG2 | 
[V:3] z4 | 
[V:4] z4 | 
[V:1] CB,/A,/G,G | 
[V:2] zg>fe- | 
[V:3] z4 | 
[V:4] z4 | 
[V:1] AB2A | 
[V:2] e/d/c/B/c2 | 
[V:3] z4 | 
[V:4] z4 | 
[V:1] B2G2 | 
[V:2] B2B2 | 
[V:3] z4 | 
[V:4] G,3E,- | 
[V:1] A2c2 | 
[V:2] c2A2 | 
[V:3] z4 | 
[V:4] E,/C,<F,E,/F, | 
[V:1] B>GBc- | 
[V:2] z2G2 | 
[V:3] z4 | 
[V:4] G,2z2 | 
[V:1] c/B/A/G<FE/ | 
[V:2] A2c2 | 
[V:3] z4 | 
[V:4] F,>G,A,2 | 
[V:1] G2zG | 
[V:2] B>GBc- | 
[V:3] z4 | 
[V:4] G,2E,3/D,/ | 
[V:1] A>Bc2 | 
[V:2] c/B/A/G/F2 | 
[V:3] z4 | 
[V:4] C,>B,,A,,2 | 
[V:1] BABA | 
[V:2] GAGA | 
[V:3] z4 | 
[V:4] G,F,G,D, | 
[V:1] BGAB | 
[V:2] GBAG | 
[V:3] z4 | 
[V:4] G,2D,G, | 
[V:1] !fermata!A4 | 
[V:2] !fermata!d4 | 
[V:3] z4 | 
[V:4] !fermata!D,4 | 
[V:1] c3c | 
[V:2] A3A | 
[V:3] z4 | 
[V:4] z4 | 
[V:1] G>AB2 | 
[V:2] c2G2 | 
[V:3] z4 | 
[V:4] z4 | 
[V:1] AAGA- | 
[V:2] dcBA- | 
[V:3] z4 | 
[V:4] z4 | 
[V:1] AG/F/E2 | 
[V:2] Ad2^c | 
[V:3] z4 | 
[V:4] z4 | 
[V:1] DDF2 | 
[V:2] d2Ad- | 
[V:3] z4 | 
[V:4] z4 | 
[V:1] FD2D | 
[V:2] ddB2 | 
[V:3] z4 | 
[V:4] z4 | 
[V:1] G2E2 | 
[V:2] Gc2A- | 
[V:3] z4 | 
[V:4] z2C,2 | 
[V:1] z2AB- | 
[V:2] Ad>cB/A/ | 
[V:3] z4 | 
[V:4] F,2D,G,- | 
[V:1] Bc>BA/G/ | 
[V:2] dcAd- | 
[V:3] z4 | 
[V:4] G,A,>G,F,/E,/ | 
[V:1] FGA2 | 
[V:2] dc/B/A2 | 
[V:3] z4 | 
[V:4] D,G,2^F, | 
[V:1] D2ED- | 
[V:2] G>A B/c/B- | 
[V:3] z4 | 
[V:4] G,2E,G,- | 
[V:1] DC/B,/CD- | 
[V:2] B/A/G/F/GA- | 
[V:3] z4 | 
[V:4] G,/F,/E,/D,/E,D,- | 
[V:1] D/A,/B,A,2 | 
[V:2] AG2^F | 
[V:3] z4 | 
[V:4] D,/E,/G,D,2 | 
[V:1] D2EE | 
[V:2] G2z2 | 
[V:3] z4 | 
[V:4] G,,4 | 
[V:1] F2D2 | 
[V:2] A2BB | 
[V:3] z4 | 
[V:4] z4 | 
[V:1] E2FF | 
[V:2] c2A2 | 
[V:3] z4 | 
[V:4] z4 | 
[V:1] G3F/E/ | 
[V:2] B2cc | 
[V:3] z4 | 
[V:4] z4 | 
[V:1] DF2G | 
[V:2] d3c/B/ | 
[V:3] z4 | 
[V:4] z4 | 
[V:1] A4 | 
[V:2] Ac2d | 
[V:3] z4 | 
[V:4] z4 | 
[V:1] G2c2 | 
[V:2] e4 | 
[V:3] z4 | 
[V:4] z4 | 
[V:1] B3G | 
[V:2] d2g2 | 
[V:3] z4 | 
[V:4] z4 | 
[V:1] A>Bcd- | 
[V:2] f3d | 
[V:3] z4 | 
[V:4] z4 | 
[V:1] dcBA- | 
[V:2] e2d3/e/ | 
[V:3] z4 | 
[V:4] z4 | 
[V:1] AGA2 | 
[V:2] fg2^f | 
[V:3] z4 | 
[V:4] z4 | 
[V:1] z4 | 
[V:2] g2z2 | 
[V:3] z4 | 
[V:4] G,2E,3/F,/ | 
[V:1] z4 | 
[V:2] d2B3/c/ | 
[V:3] z4 | 
[V:4] G,D,G,F,/E,/ | 
[V:1] z4 | 
[V:2] dAdc/B/ | 
[V:3] z4 | 
[V:4] D,2zD, | 
[V:1] z4 | 
[V:2] A2zc | 
[V:3] z4 | 
[V:4] F,2E,2 | 
[V:1] z4 | 
[V:2] df>ee- | 
[V:3] z4 | 
[V:4] D,2A,2 | 
[V:1] z4 | 
[V:2] e/d/c/B/ A/G/F/E/ | 
[V:3] z4 | 
[V:4] G,2F,A,- | 
[V:1] z4 | 
[V:2] Dd2^c | 
[V:3] z4 | 
[V:4] A,F,E,2 | 
[V:1] zDFF | 
[V:2] d2zD | 
[V:3] z4 | 
[V:4] D,2D,2 | 
[V:1] A>AFD | 
[V:2] FFA3/A/ | 
[V:3] z4 | 
[V:4] D,D,D,3/D,/ | 
[V:1] d>cA_B | 
[V:2] FDd3/e/ | 
[V:3] z4 | 
[V:4] D,2F,G, | 
[V:1] A_B>Ac- | 
[V:2] fg>fe/d/ | 
[V:3] z4 | 
[V:4] D,zG,A,- | 
[V:1] c/_B/A/G/FE | 
[V:2] c2dc | 
[V:3] z4 | 
[V:4] A,/G,/F,/E,/D,E, | 
[V:1] F4 ||  
[V:2] d4 ||  
[V:3] z4 ||  
[V:4] D,4 ||  
[V:1] [M:2/2]z4 | 
[V:2] [M:2/2]z4 | 
[V:3] [M:2/2]z4 | 
[V:4] [M:2/2]G,,2G,,G,, | 
[V:1] z4 | 
[V:2] z4 | 
[V:3] z4 | 
[V:4] C,2C,2 | 
[V:1] D2DD | 
[V:2] z4 | 
[V:3] z4 | 
[V:4] D,2D,2 | 
[V:1] G2G2 | 
[V:2] z4 | 
[V:3] z4 | 
[V:4] E,2G,2 | 
[V:1] A2A2 | 
[V:2] z4 | 
[V:3] D2D2 | 
[V:4] F,>E,D,2 | 
[V:1] B4 | 
[V:2] z4 | 
[V:3] G2G2 | 
[V:4] G,,4 | 
[V:1] z4 | 
[V:2] D2D2 | 
[V:3] AAA2 | 
[V:4] z4 | 
[V:1] z2BB | 
[V:2] G2G2 | 
[V:3] B2B2 | 
[V:4] z4 | 
[V:1] A2c2 | 
[V:2] AAA2 | 
[V:3] c2A2 | 
[V:4] F,F,F,2 | 
[V:1] B2G2 | 
[V:2] B2B2 | 
[V:3] G3G | 
[V:4] G,2E,2 | 
[V:1] B2A2 | 
[V:2] G2A2 | 
[V:3] G2d2 | 
[V:4] E,2D,2 | 
[V:1] B2AB- | 
[V:2] z4 | 
[V:3] d2d2 | 
[V:4] G,2F,G,- | 
[V:1] BA/G/^F2 | 
[V:2] G2A3/B/ | 
[V:3] d2zd | 
[V:4] G,F,/E,/D,2 | 
[V:1] zG>AB/c/ | 
[V:2] c>BG3/A/ | 
[V:3] e3d/c/ | 
[V:4] C,>D, E,/F,/G,- | 
[V:1] d>cBA- | 
[V:2] B/c<de/f/g/ | 
[V:3] B>ABc- | 
[V:4] G,G,2F,- | 
[V:1] ABc2 | 
[V:2] ag2^f | 
[V:3] cB2A | 
[V:4] F,G,A,2 | 
[V:1] B2zB- | 
[V:2] g2d2 | 
[V:3] B3G | 
[V:4] G,4 | 
[V:1] BcBA- | 
[V:2] e2dc | 
[V:3] G2z2 | 
[V:4] zC,G,A, | 
[V:1] AG2^F | 
[V:2] dBA2 | 
[V:3] zGd2 | 
[V:4] F,G,D,2 | 
[V:1] G2z2 | 
[V:2] GG2^F | 
[V:3] BGA2 | 
[V:4] G,,2D,2 | 
[V:1] z4 | 
[V:2] GBcA | 
[V:3] GG2^F | 
[V:4] B,,G,,A,,2 | 
[V:1] D>EFG | 
[V:2] Bd>cB | 
[V:3] G2DG | 
[V:4] G,,2zG,, | 
[V:1] AG2^F | 
[V:2] A/B/cd2 | 
[V:3] FGA2 | 
[V:4] D,E,D,2 | 
[V:1] G3F/E/ | 
[V:2] B3c | 
[V:3] G4 | 
[V:4] E,3D, | 
[V:1] DCF2 | 
[V:2] ded2 | 
[V:3] z4 | 
[V:4] B,,C,2B,, | 
[V:1] E4 | 
[V:2] cB/A/ G/F/ E/D/ | 
[V:3] z4 | 
[V:4] C,E,2G,- | 
[V:1] z4 | 
[V:2] Cc2B | 
[V:3] z4 | 
[V:4] G,E,D,2 | 
[V:1] E3E | 
[V:2] c2c2 | 
[V:3] G4 | 
[V:4] C,4 | 
[V:1] E2E2 | 
[V:2] c2c2 | 
[V:3] G2G2 | 
[V:4] C,2C,2 | 
[V:1] DDD3/C/ | 
[V:2] B>cd2 | 
[V:3] B4 | 
[V:4] G,,2G,,G, | 
[V:1] A,2A,2 | 
[V:2] z4 | 
[V:3] c2c2 | 
[V:4] A,F,2E,/F,/ | 
[V:1] zG>AB- | 
[V:2] d>c B/A/G | 
[V:3] B2d2- | 
[V:4] G,4 | 
[V:1] BA/G/^F2 | 
[V:2] FGD2 | 
[V:3] dc/B/A2 | 
[V:4] z4 | 
[V:1] G2G2 | 
[V:2] d3e | 
[V:3] _B3A/G/ | 
[V:4] G,,2G,,2 | 
[V:1] AA2G/F/ | 
[V:2] f>e d/c/d- | 
[V:3] F3D | 
[V:4] D,2D,2 | 
[V:1] G2F2 | 
[V:2] dcd3/e/ | 
[V:3] E2D2- | 
[V:4] z2A,2 | 
[V:1] D>E F/G/A- | 
[V:2] f/g/a2A- | 
[V:3] D2d2- | 
[V:4] F,F,D,2 | 
[V:1] A_BAG | 
[V:2] AGA_B | 
[V:3] d2d2 | 
[V:4] F,G,F,G, | 
[V:1] AFE2 | 
[V:2] A>BcA | 
[V:3] d2c2 | 
[V:4] D,2A,2 | 
[V:1] D2zG- | 
[V:2] A_B2A/G/ | 
[V:3] d4 | 
[V:4] D,G,2F,/E,/ | 
[V:1] GFG2 | 
[V:2] A2_B2 | 
[V:3] d2dd | 
[V:4] D,2G,2 | 
[V:1] A2A3/G/ | 
[V:2] A2d2 | 
[V:3] f2f2 | 
[V:4] F,2D,D, | 
[V:1] A_BAB- | 
[V:2] z4 | 
[V:3] d2d2 | 
[V:4] D,>E,F,G,- | 
[V:1] B/A<c_B/A/G/ | 
[V:2] z2c3/_B/ | 
[V:3] e4 | 
[V:4] G,/F,/E,/D,/C,2 | 
[V:1] FG2^F | 
[V:2] AGA2 | 
[V:3] d4- | 
[V:4] D,4 | 
[V:1] G2_B2 | 
[V:2] G3E | 
[V:3] d4 | 
[V:4] z4 | 
[V:1] A2d2 | 
[V:2] FD>EF/G/ | 
[V:3] z4 | 
[V:4] z2D,3/E,/ | 
[V:1] c_BAB- | 
[V:2] A_Bcd- | 
[V:3] z4 | 
[V:4] F,G,A,G, | 
[V:1] BA2G | 
[V:2] d/A/c_B2 | 
[V:3] z4 | 
[V:4] D,F,G,2 | 
[V:1] A4 | 
[V:2] A4 | 
[V:3] f4 | 
[V:4] D,4 | 
[V:1] z2A2 | 
[V:2] d2d2 | 
[V:3] f4 | 
[V:4] D,2D,2 | 
[V:1] AA2A | 
[V:2] c2cc- | 
[V:3] f2f2 | 
[V:4] F,2F,2 | 
[V:1] c2c2 | 
[V:2] c/d/e/f/g2 | 
[V:3] e4 | 
[V:4] C,2zC, | 
[V:1] B2A2- | 
[V:2] z2f2 | 
[V:3] d2c2 | 
[V:4] G,D,F,2 | 
[V:1] A2d2 | 
[V:2] d2d2 | 
[V:3] B4 | 
[V:4] G,4 | 
[V:1] cc>BA/G/ | 
[V:2] e2e2 | 
[V:3] A4 | 
[V:4] z4 | 
[V:1] F2EA- | 
[V:2] d2ef | 
[V:3] A4 | 
[V:4] D,2C,D, | 
[V:1] AG/F/E2 | 
[V:2] ed2c | 
[V:3] A2A2 | 
[V:4] C,D,A,,2 | 
[V:1] DG2^F | 
[V:2] ded2 | 
[V:3] A4 | 
[V:4] D,C,D,2 | 
[V:1] G2DG- | 
[V:2] B>cdG | 
[V:3] G2B2 | 
[V:4] E,>D,B,,E,- | 
[V:1] G^F/E/F2 | 
[V:2] z2d2 | 
[V:3] A2A2 | 
[V:4] E,D,/C,/D,2 | 
[V:1] G2G2 | 
[V:2] B3c | 
[V:3] G4- | 
[V:4] E,4 | 
[V:1] G3G | 
[V:2] Be2d/c/ | 
[V:3] G4 | 
[V:4] E,2E,E, | 
[V:1] G2G2 | 
[V:2] B3c- | 
[V:3] G2GG | 
[V:4] E,2E,E, | 
[V:1] GGGG | 
[V:2] cB/A/G2 | 
[V:3] G2G2 | 
[V:4] E,2E,2 | 
[V:1] F2_B2 | 
[V:2] A2z2 | 
[V:3] d4 | 
[V:4] D,2G,2 | 
[V:1] A2d2 | 
[V:2] D2F3/G/ | 
[V:3] d2d2 | 
[V:4] F,2D,2 | 
[V:1] c>BAG- | 
[V:2] A2de | 
[V:3] e2fe- | 
[V:4] A,,2zC,- | 
[V:1] GFE2 | 
[V:2] cAA2 | 
[V:3] ed2c | 
[V:4] C,F,A,,2 | 
[V:1] DF2A- | 
[V:2] z4 | 
[V:3] d3c | 
[V:4] z2D,2 | 
[V:1] A^GA2 | 
[V:2] z4 | 
[V:3] B2A2 | 
[V:4] E,2F,2 | 
[V:1] z4 | 
[V:2] d2dd | 
[V:3] z4 | 
[V:4] G,2D,2 | 
[V:1] z4 | 
[V:2] Bc2B/A/ | 
[V:3] z4 | 
[V:4] E,E,F,2 | 
[V:1] d2cB/A/ | 
[V:2] Gde^f | 
[V:3] z4 | 
[V:4] G,2zD, | 
[V:1] GAGB | 
[V:2] gded- | 
[V:3] z4 | 
[V:4] E,F,G,2 | 
[V:1] AGA2 | 
[V:2] dc/B/A2 | 
[V:3] z4 | 
[V:4] D,G,2^F, | 
[V:1] z4 | 
[V:2] G2EF | 
[V:3] z4 | 
[V:4] G,2C,D, | 
[V:1] z4 | 
[V:2] EA2G/F/ | 
[V:3] z4 | 
[V:4] E,F,F,E,/D,/ | 
[V:1] G2EF | 
[V:2] E>FGA | 
[V:3] z4 | 
[V:4] C,2E,D, | 
[V:1] EA2G/F/ | 
[V:2] BcdB | 
[V:3] z4 | 
[V:4] G,F,D,2 | 
[V:1] E3C | 
[V:2] c4 | 
[V:3] z4 | 
[V:4] C,2C,C, | 
[V:1] C2cc | 
[V:2] z2c3/B/ | 
[V:3] e3e | 
[V:4] C,C,C,2 | 
[V:1] ccBA- | 
[V:2] G2EF- | 
[V:3] eed2 | 
[V:4] C,2G,F, | 
[V:1] AG/F/ED- | 
[V:2] F/G/A2D- | 
[V:3] d2cB | 
[V:4] D,2A,,B,,- | 
[V:1] DG2^F | 
[V:2] Dd2d | 
[V:3] G2A2 | 
[V:4] B,,G,,D,2 | 
[V:1] G2zD | 
[V:2] B>cd2 | 
[V:3] G4- | 
[V:4] G,,2z2 | 
[V:1] E2DD | 
[V:2] c2zd | 
[V:3] G4- | 
[V:4] C,2B,,2 | 
[V:1] G2G2 | 
[V:2] dde2 | 
[V:3] G4- | 
[V:4] G,,G,,C,2 | 
[V:1] B2GG | 
[V:2] d2B2 | 
[V:3] G4 | 
[V:4] G,,4 | 
[V:1] c2B2 | 
[V:2] A2BG | 
[V:3] z4 | 
[V:4] A,,2G,,2 | 
[V:1] A2B2 | 
[V:2] c2d2 | 
[V:3] z4 | 
[V:4] A,,2zG,, | 
[V:1] G2cd | 
[V:2] e2zd- | 
[V:3] z4 | 
[V:4] C,2A,,B,, | 
[V:1] BGA2 | 
[V:2] dg2f | 
[V:3] z4 | 
[V:4] G,,2D,2 | 
[V:1] GFGE | 
[V:2] edec | 
[V:3] z4 | 
[V:4] zD,C,2 | 
[V:1] DG2^F | 
[V:2] dBA2 | 
[V:3] z4 | 
[V:4] B,,G,,D,2 | 
[V:1] G4- | 
[V:2] G4- | 
[V:3] G4- | 
[V:4] G,,3/A,,//B,,//C,3/B,,//A,,// | 
[V:1] G4 |]  
[V:2] G4 |]  
[V:3] G4 |]  
[V:4] G,,4 |]  


